X:59
T:Fill the Stoup
S:Petrie's Second Collection of Strathspey Reels and Country Dances &c.
Z:Steve Wyrick , 6/11/04
N:Petrie's Second Collection, page 21
% Gore's Index gives earliest publication as James Aird's
% "Selection of Scotch, English, Irish and Foreign Airs" v4 ca 1790
L:1/8
M:C
R:Reel
K:A
a|e2Tc2 eAAf|e2c2 fBBa|e2Tc2 eAcA|dfce fBB::a|
  AAcA  eAAa|AAcA fBBa|AAcA  eAcA|dfce fBB::f|
  eaca  eAAf|eaca fBBf|eaca  eace|dfce fBB::a|
  AAcA  eAAa|AAcA fBBa|AAcA  eAcA|dfce fBB:|
